X:1
T: Miss Bigg's Fancy
M: C|
B: James Campbell's Collection 1798
Z: source from Highland Music Trust, chords by Gary Whaley
L: 1/8
K:F
[|: "F" c2 AF "C" GE C2 | "F" c2 AF "C" E/F/G/E/ C2 |\
"F" c2 (Ac) "Bb" defg | "C7" dbge "F"  f2 F2 :|]
[| "F" af Tf2 {e/f/}"C"ge c2 | "Bb" dB TB2 {AB}"F"cA F2 |\
"C7"EG B2 "F"Ac f2 | "C7" dbge "F"f2 F2 |
"F" af Tf2 {ef}"C7"ge c2 | "Bb" dB TB2 {AB}"F"cA F2 |\
"C" ECEG "C7" BGdB | "F" AG"C"FE "F" F2 F2 |]
